X:1445
T:Black Joake
A:Wyresdale, Lancashire
B:E and J Winder, 1835-41
L:1/8
M:6/8
O:England
Z:Richard Robinson 
%%TUNEURL: http://www.leeds.ac.uk/music/Info/RRTuneBk/gettune/00001227.html
%%ID:00001227
K:C
G | cdc cBc | ded dcd | efe edc | ded dcB | c3 A3 | GAB c2 ::
f | efg geg | abc' g2f | efg geg | abc' g2
f/e/ | f2d' e2d' | ded dcd | efe gec | ded dcB | c3 A3 | GAB c2 |]
